src/assets/images/reactions/women/small/scared.svg

<svg width="15" height="15" viewBox="0 0 15 15" fill="none" xmlns="http://www.w3.org/2000/svg">
<path d="M7.49998 14C10.9927 14 13.8242 11.0899 13.8242 7.5C13.8242 3.91015 10.9927 1 7.49998 1C4.00722 1 1.17578 3.91015 1.17578 7.5C1.17578 11.0899 4.00722 14 7.49998 14Z" fill="url(#paint0_linear_862_5069)"/>
<path d="M7.50054 12.0992C8.32927 12.0992 9.00108 10.9577 9.00108 9.54959C9.00108 8.14149 8.32927 7 7.50054 7C6.67182 7 6 8.14149 6 9.54959C6 10.9577 6.67182 12.0992 7.50054 12.0992Z" fill="#303030"/>
<path d="M8.76874 10.9173C7.67321 10.3131 6.78351 10.6583 6.26562 10.997C6.53785 11.6609 6.98934 12.0991 7.50059 12.0991C8.03175 12.0991 8.50316 11.6277 8.76874 10.9173Z" fill="#D94B4B"/>
<path d="M3 7.7887L3.47869 7.49998" stroke="#303030" stroke-width="0.5" stroke-linecap="round"/>
<path d="M11.5 7L11.9787 7.28872" stroke="#303030" stroke-width="0.5" stroke-linecap="round"/>
<path d="M3 7.2887L3.47869 6.99998" stroke="#303030" stroke-width="0.5" stroke-linecap="round"/>
<path d="M11.5 7.5L11.9787 7.78872" stroke="#303030" stroke-width="0.5" stroke-linecap="round"/>
<path d="M6.00301 6.95726C6.49975 5.99276 6.32267 4.93982 5.60749 4.60546C4.8923 4.27109 3.90984 4.78192 3.4131 5.74642C2.91636 6.71092 3.09344 7.76385 3.80863 8.09822C4.52381 8.43258 5.50627 7.92175 6.00301 6.95726Z" fill="white"/>
<path d="M11.2051 8.09938C11.9203 7.76501 12.0974 6.71208 11.6007 5.74758C11.1039 4.78308 10.1215 4.27225 9.40629 4.60662C8.6911 4.94098 8.51402 5.99392 9.01076 6.95842C9.5075 7.92292 10.49 8.43374 11.2051 8.09938Z" fill="white"/>
<path d="M10.5482 3.9787C10.3943 3.9787 10.2734 3.8578 10.2734 3.70393V0.274772C10.2734 0.1209 10.3943 0 10.5482 0C10.7021 0 10.823 0.1209 10.823 0.274772V3.70393C10.823 3.84681 10.6911 3.9787 10.5482 3.9787Z" fill="#414042"/>
<path d="M11.8119 3.41812C11.658 3.41812 11.5371 3.29722 11.5371 3.14335V0.670402C11.5371 0.51653 11.658 0.39563 11.8119 0.39563C11.9658 0.39563 12.0867 0.51653 12.0867 0.670402V3.14335C12.0867 3.29722 11.9658 3.41812 11.8119 3.41812Z" fill="#414042"/>
<path d="M13.0873 5.24261C12.9334 5.24261 12.8125 5.12171 12.8125 4.96783V1.27489C12.8125 1.12102 12.9334 1.00012 13.0873 1.00012C13.2411 1.00012 13.362 1.12102 13.362 1.27489V4.96783C13.362 5.12171 13.2411 5.24261 13.0873 5.24261Z" fill="#414042"/>
<defs>
<linearGradient id="paint0_linear_862_5069" x1="2.01512" y1="10.7532" x2="13.1243" y2="4.51272" gradientUnits="userSpaceOnUse">
<stop stop-color="#EB3E7D"/>
<stop offset="0.0001" stop-color="#EB3E7D"/>
<stop offset="0.033108" stop-color="#F84E8C"/>
<stop offset="0.1781" stop-color="#F86399"/>
<stop offset="0.5514" stop-color="#E76493"/>
<stop offset="1" stop-color="#FD7FB4"/>
</linearGradient>
</defs>
</svg>

<svg xmlns="http://www.w3.org/2000/svg" width="15" height="15" fill="none">
  <path fill="url(#a)" d="M7.5 14c3.493 0 6.324-2.91 6.324-6.5S10.993 1 7.5 1 1.176 3.91 1.176 7.5 4.007 14 7.5 14Z"/>
  <path fill="#303030" d="M7.5 12.1c.83 0 1.501-1.142 1.501-2.55C9.001 8.14 8.33 7 7.501 7 6.67 7 6 8.141 6 9.55c0 1.408.672 2.55 1.5 2.55Z"/>
  <path fill="#D94B4B" d="M8.769 10.917c-1.096-.604-1.985-.259-2.503.08.272.664.723 1.102 1.235 1.102.53 0 1.002-.471 1.268-1.182Z"/>
  <path stroke="#303030" stroke-linecap="round" stroke-width=".5" d="m3 7.789.479-.289M11.5 7l.479.289M3 7.289 3.479 7M11.5 7.5l.479.289"/>
  <path fill="#fff" d="M6.003 6.957c.497-.964.32-2.017-.396-2.352-.715-.334-1.697.177-2.194 1.141-.497.965-.32 2.018.396 2.352.715.335 1.697-.176 2.194-1.14ZM11.205 8.1c.715-.335.892-1.388.396-2.352-.497-.965-1.48-1.476-2.195-1.141-.715.334-.892 1.387-.395 2.351.497.965 1.479 1.476 2.194 1.141Z"/>
  <path fill="#414042" d="M10.548 3.979a.272.272 0 0 1-.275-.275V.274c0-.153.121-.274.275-.274.154 0 .275.12.275.275v3.429a.287.287 0 0 1-.275.275ZM11.812 3.418a.272.272 0 0 1-.275-.275V.67c0-.153.121-.274.275-.274.154 0 .275.12.275.274v2.473c0 .154-.121.275-.275.275ZM13.087 5.243a.272.272 0 0 1-.274-.275V1.275c0-.154.12-.275.274-.275.154 0 .275.121.275.275v3.693c0 .154-.12.275-.275.275Z"/>
  <defs>
    <linearGradient id="a" x1="2.015" x2="13.124" y1="10.753" y2="4.513" gradientUnits="userSpaceOnUse">
      <stop stop-color="#EB3E7D"/>
      <stop offset="0" stop-color="#EB3E7D"/>
      <stop offset=".033" stop-color="#F84E8C"/>
      <stop offset=".178" stop-color="#F86399"/>
      <stop offset=".551" stop-color="#E76493"/>
      <stop offset="1" stop-color="#FD7FB4"/>
    </linearGradient>
  </defs>
</svg>
